Sweet-Rainbow/icons/librecad.svg

<?xml version="1.0" encoding="UTF-8" standalone="no"?>
<!-- Generator: Gravit.io -->

<svg
   xmlns:dc="http://purl.org/dc/elements/1.1/"
   xmlns:cc="http://creativecommons.org/ns#"
   xmlns:rdf="http://www.w3.org/1999/02/22-rdf-syntax-ns#"
   xmlns:svg="http://www.w3.org/2000/svg"
   xmlns="http://www.w3.org/2000/svg"
   xmlns:sodipodi="http://sodipodi.sourceforge.net/DTD/sodipodi-0.dtd"
   xmlns:inkscape="http://www.inkscape.org/namespaces/inkscape"
   style="isolation:isolate"
   viewBox="0 0 36 36"
   width="48"
   height="48"
   version="1.1"
   id="svg13"
   sodipodi:docname="librecad.svg"
   inkscape:version="0.92.4 (5da689c313, 2019-01-14)">
  <metadata
     id="metadata19">
    <rdf:RDF>
      <cc:Work
         rdf:about="">
        <dc:format>image/svg+xml</dc:format>
        <dc:type
           rdf:resource="http://purl.org/dc/dcmitype/StillImage" />
        <dc:title></dc:title>
      </cc:Work>
    </rdf:RDF>
  </metadata>
  <defs
     id="defs17" />
  <sodipodi:namedview
     pagecolor="#ffffff"
     bordercolor="#666666"
     borderopacity="1"
     objecttolerance="10"
     gridtolerance="10"
     guidetolerance="10"
     inkscape:pageopacity="0"
     inkscape:pageshadow="2"
     inkscape:window-width="640"
     inkscape:window-height="480"
     id="namedview15"
     showgrid="false"
     inkscape:zoom="29.365243"
     inkscape:cx="25.325443"
     inkscape:cy="32"
     inkscape:current-layer="svg13"
     units="px" />
  <linearGradient
     id="_lgradient_42"
     x1="1.5627142"
     y1="0.54316336"
     x2="-0.052491475"
     y2="0.53895819"
     gradientTransform="matrix(43.693,0,0,45.69,2,1)"
     gradientUnits="userSpaceOnUse">
    <stop
       offset="34.94098066785295%"
       stop-opacity="1"
       style="stop-color:rgb(178,229,107)"
       id="stop2" />
    <stop
       offset="53.84922244785295%"
       stop-opacity="1"
       style="stop-color:rgb(194,233,100)"
       id="stop4" />
    <stop
       offset="90.40515655585295%"
       stop-opacity="1"
       style="stop-color:rgb(236,244,81)"
       id="stop6" />
    <stop
       offset="100%"
       stop-opacity="1"
       style="stop-color:rgb(250,247,75)"
       id="stop8" />
  </linearGradient>
  <g
     id="g827"
     transform="matrix(0.78791858,0,0,0.78791858,-0.78925101,-0.78791854)">
    <path
       id="path11"
       d="M 14,26 H 43.9 C 43.967,25.335 44,24.668 44,24 43.993,23.332 43.953,22.664 43.879,22 H 14 v -2 c 0,-1.104 -0.896,-2 -2,-2 H 4 c -1.104,0 -2,0.896 -2,2 v 8 c 0,1.104 0.896,2 2,2 h 8 c 1.104,0 2,-0.896 2,-2 z M 24,5 c 0,0 0,0 0,0 0,0 0,0 0,0 v 0 0 c 0,0 0,0 0,0 -6.41,0 -12.4,3.25 -15.91,8.61 v 0 c -0.602,0.927 -1.841,1.189 -2.765,0.585 v 0 C 4.401,13.591 4.138,12.352 4.74,11.43 v 0 C 8.99,4.93 16.24,1.01 24,1 c 0,0 0,0 0,0 v 0 0 c 4.69,0 9.28,1.44 13.13,4.12 3.86,2.68 6.8,6.47 8.44,10.87 v 0 c 0.381,1.038 -0.15,2.191 -1.185,2.575 v 0 C 43.35,18.949 42.201,18.422 41.82,17.39 v 0 C 40.47,13.75 38.03,10.62 34.85,8.4 31.67,6.19 27.88,5 24,5 Z m 17.82,25.3 v 0 c 0.381,-1.032 1.53,-1.559 2.565,-1.175 v 0 c 1.035,0.384 1.566,1.537 1.185,2.575 v 0 c -1.64,4.4 -4.58,8.19 -8.44,10.87 -3.85,2.68 -8.44,4.12 -13.13,4.12 -7.76,0 -15.01,-3.93 -19.26,-10.42 v 0 C 4.138,35.343 4.401,34.099 5.325,33.495 v 0 C 6.249,32.891 7.488,33.153 8.09,34.08 v 0 c 3.51,5.36 9.5,8.61 15.91,8.61 3.88,0 7.67,-1.19 10.85,-3.4 3.18,-2.21 5.62,-5.35 6.97,-8.99 z"
       style="fill:url(#_lgradient_42);fill-rule:evenodd"
       inkscape:connector-curvature="0" />
  </g>
</svg>

<?xml version="1.0" encoding="UTF-8" standalone="no"?><!-- Generator: Gravit.io --><svg xmlns="http://www.w3.org/2000/svg" xmlns:xlink="http://www.w3.org/1999/xlink" style="isolation:isolate" viewBox="0 0 48 48" width="48pt" height="48pt"><linearGradient id="_lgradient_42" x1="1.5627141899860746" y1="0.543163345093069" x2="-0.052491476226457445" y2="0.5389581965419142" gradientTransform="matrix(43.693,0,0,45.69,2,1)" gradientUnits="userSpaceOnUse"><stop offset="34.94098066785295%" stop-opacity="1" style="stop-color:rgb(178,229,107)"/><stop offset="53.84922244785295%" stop-opacity="1" style="stop-color:rgb(194,233,100)"/><stop offset="90.40515655585295%" stop-opacity="1" style="stop-color:rgb(236,244,81)"/><stop offset="100%" stop-opacity="1" style="stop-color:rgb(250,247,75)"/></linearGradient><path d=" M 14 26 L 43.9 26 C 43.967 25.335 44 24.668 44 24 C 43.993 23.332 43.953 22.664 43.879 22 L 14 22 L 14 20 C 14 18.896 13.104 18 12 18 L 4 18 C 2.896 18 2 18.896 2 20 L 2 28 C 2 29.104 2.896 30 4 30 L 12 30 C 13.104 30 14 29.104 14 28 L 14 26 L 14 26 Z  M 24 5 C 24 5 24 5 24 5 C 24 5 24 5 24 5 L 24 5 L 24 5 C 24 5 24 5 24 5 C 17.59 5 11.6 8.25 8.09 13.61 L 8.09 13.61 C 7.488 14.537 6.249 14.799 5.325 14.195 L 5.325 14.195 C 4.401 13.591 4.138 12.352 4.74 11.43 L 4.74 11.43 C 8.99 4.93 16.24 1.01 24 1 C 24 1 24 1 24 1 L 24 1 L 24 1 C 28.69 1 33.28 2.44 37.13 5.12 C 40.99 7.8 43.93 11.59 45.57 15.99 L 45.57 15.99 C 45.951 17.028 45.42 18.181 44.385 18.565 L 44.385 18.565 C 43.35 18.949 42.201 18.422 41.82 17.39 L 41.82 17.39 C 40.47 13.75 38.03 10.62 34.85 8.4 C 31.67 6.19 27.88 5 24 5 L 24 5 Z  M 41.82 30.3 L 41.82 30.3 C 42.201 29.268 43.35 28.741 44.385 29.125 L 44.385 29.125 C 45.42 29.509 45.951 30.662 45.57 31.7 L 45.57 31.7 C 43.93 36.1 40.99 39.89 37.13 42.57 C 33.28 45.25 28.69 46.69 24 46.69 C 16.24 46.69 8.99 42.76 4.74 36.27 L 4.74 36.27 C 4.138 35.343 4.401 34.099 5.325 33.495 L 5.325 33.495 C 6.249 32.891 7.488 33.153 8.09 34.08 L 8.09 34.08 C 11.6 39.44 17.59 42.69 24 42.69 C 27.88 42.69 31.67 41.5 34.85 39.29 C 38.03 37.08 40.47 33.94 41.82 30.3 Z " fill-rule="evenodd" fill="url(#_lgradient_42)"/></svg>
